Newaita-dark/apps/48/vim.svg

<svg height="48pt" viewBox="0 0 48 48" width="48pt" xmlns="http://www.w3.org/2000/svg" xmlns:xlink="http://www.w3.org/1999/xlink"><linearGradient id="a"><stop offset="0" stop-opacity=".313725"/><stop offset=".222222" stop-opacity=".27451"/><stop offset="1" stop-opacity="0"/></linearGradient><radialGradient id="b" cx="450.908936" cy="189.579361" gradientTransform="matrix(.00000026 -.117199 -.210958 -.00000015 63.311737 95.392999)" gradientUnits="userSpaceOnUse" r="21.166656" xlink:href="#a"/><radialGradient id="c" cx="450.908936" cy="189.579361" gradientTransform="matrix(-.00000026 .117199 .210958 .00000015 -15.682186 -11.291218)" gradientUnits="userSpaceOnUse" r="21.166656" xlink:href="#a"/><radialGradient id="d" cx="450.908936" cy="189.579361" gradientTransform="matrix(-.00000026 -.117199 .210958 -.00000015 -15.682186 95.392999)" gradientUnits="userSpaceOnUse" r="21.166656" xlink:href="#a"/><radialGradient id="e" cx="450.908936" cy="189.579361" gradientTransform="matrix(.00000026 .117199 -.210958 .00000015 63.311734 -11.291219)" gradientUnits="userSpaceOnUse" r="21.166656" xlink:href="#a"/><linearGradient id="f" gradientTransform="matrix(.0662976 -.0662976 .0662976 .0662976 5.52769 38.519098)" gradientUnits="userSpaceOnUse" x1="111.280739" x2="395.655518" y1="164.552521" y2="-119.822243"><stop offset="0" stop-color="#66bb6a"/><stop offset="1" stop-color="#81c784"/></linearGradient><linearGradient id="g" gradientUnits="userSpaceOnUse" x1="19.84568" x2="19.84568" y1="38.08182980616" y2="6.32874066504"><stop offset="0" stop-color="#e0e0e0"/><stop offset="1" stop-color="#eee"/></linearGradient><path d="m23.816406 42.050781h3.96875v-1.984375h-3.96875zm0 0" fill="url(#b)"/><path d="m23.816406 42.050781h-3.972656v1.984375h3.972656zm0 0" fill="url(#c)"/><path d="m23.816406 42.050781h-3.972656v-1.984375h3.972656zm0 0" fill="url(#d)"/><path d="m23.816406 42.050781h3.96875v1.984375h-3.96875zm0 0" fill="url(#e)"/><path d="m5.570312 21.722656 16.839844-16.839844c.777344-.773437 2.03125-.773437 2.808594 0l16.839844 16.839844c.773437.777344.773437 2.03125 0 2.808594l-16.839844 16.839844c-.777344.773437-2.03125.773437-2.808594 0l-16.839844-16.839844c-.773437-.777344-.773437-2.03125 0-2.808594zm0 0" fill="url(#f)"/><path d="m23.816406 4.300781c-.507812 0-1.015625.195313-1.40625.582031l-16.839844 16.839844c-.464843.46875-.652343 1.109375-.558593 1.710938.0625-.398438.25-.785156.558593-1.09375l16.839844-16.839844c.777344-.777344 2.03125-.777344 2.808594 0l16.839844 16.839844c.308594.308594.496094.695312.558594 1.09375.09375-.601563-.09375-1.242188-.558594-1.710938l-16.839844-16.839844c-.390625-.386718-.898438-.582031-1.402344-.582031zm0 0" fill="#fff" fill-opacity=".392157"/><path d="m23.816406 41.953125c-.507812 0-1.015625-.195313-1.40625-.585937l-16.839844-16.839844c-.464843-.464844-.652343-1.105469-.558593-1.710938.0625.402344.25.789063.558593 1.097656l16.839844 16.839844c.777344.777344 2.03125.777344 2.808594 0l16.839844-16.839844c.308594-.308593.496094-.695312.558594-1.097656.09375.605469-.09375 1.246094-.558594 1.710938l-16.839844 16.839844c-.390625.390624-.898438.585937-1.402344.585937zm0 0" fill-opacity=".235294"/><path d="m5.472656 21.625c-.832031.828125-.832031 2.175781 0 3.003906l16.839844 16.839844c.832031.832031 2.175781.832031 3.003906 0l16.839844-16.839844c.832031-.828125.832031-2.171875 0-3.003906l-16.839844-16.839844c-.828125-.832031-2.171875-.832031-3.003906 0zm.199219.199219 16.839844-16.839844c.722656-.726563 1.882812-.726563 2.605469 0l16.839843 16.839844c.726563.722656.726563 1.882812 0 2.605469l-16.839843 16.839843c-.722657.726563-1.882813.726563-2.605469 0l-16.839844-16.839843c-.722656-.722657-.726563-1.882813 0-2.605469zm0 0" fill="#212121"/><path d="m8.929688 7.320312c-.824219 0-1.488282.664063-1.488282 1.488282 0 .824218.664063 1.488281 1.488282 1.488281v24.691406c-.03125.800781.257812 1.613281.871093 2.230469 1.167969 1.164062 3.046875 1.164062 4.210938 0l26.921875-26.921875h.742187c.824219 0 1.488281-.664063 1.488281-1.488281 0-.824219-.664062-1.488282-1.488281-1.488282h-8.929687c-.824219 0-1.488282.664063-1.488282 1.488282 0 .75.550782 1.367187 1.269532 1.472656l-17.644532 17.644531v-17.628906c.824219 0 1.488282-.664063 1.488282-1.488281 0-.824219-.664063-1.488282-1.488282-1.488282zm0 0" fill="url(#g)"/><path d="m8.929688 7.320312c-.824219 0-1.488282.664063-1.488282 1.488282 0 .085937.007813.167968.023438.25.117187-.707032.726562-1.242188 1.464844-1.242188h5.953124c.742188 0 1.351563.535156 1.46875 1.242188.015626-.082032.019532-.164063.019532-.25 0-.824219-.664063-1.488282-1.488282-1.488282zm23.816406 0c-.824219 0-1.488282.664063-1.488282 1.488282 0 .085937.007813.167968.019532.25.117187-.707032.726562-1.242188 1.46875-1.242188h8.929687c.738281 0 1.351563.535156 1.46875 1.242188.011719-.082032.019531-.164063.019531-.25 0-.824219-.664062-1.488282-1.488281-1.488282zm-.605469 3.347657-17.257813 17.257812v.496094l17.644532-17.644531c-.136719-.019532-.265625-.058594-.386719-.109375zm-23.210937 24.320312c-.003907.082031-.003907.160157 0 .242188zm0 0" fill="#fff" fill-opacity=".784314"/><path d="m7.453125 8.621094c-.007813.0625-.011719.125-.011719.1875 0 .824218.664063 1.488281 1.488282 1.488281v-.371094c-.761719 0-1.382813-.566406-1.476563-1.304687zm8.90625 0c-.089844.738281-.714844 1.304687-1.476563 1.304687v.371094c.824219 0 1.488282-.664063 1.488282-1.488281 0-.0625-.003906-.125-.011719-.1875zm26.792969 0c-.089844.738281-.714844 1.304687-1.476563 1.304687h-.742187l-26.921875 26.917969c-1.164063 1.167969-3.042969 1.167969-4.210938 0-.550781-.550781-.839843-1.265625-.871093-1.988281v.132812c-.03125.800781.257812 1.613281.871093 2.230469 1.167969 1.164062 3.046875 1.164062 4.210938 0l26.921875-26.921875h.742187c.824219 0 1.488281-.664063 1.488281-1.488281 0-.0625-.003906-.125-.011718-.1875zm-11.882813.003906c-.007812.058594-.011719.121094-.011719.183594 0 .644531.402344 1.1875.972657 1.398437l.296875-.296875c-.660156-.097656-1.175782-.621094-1.257813-1.285156zm0 0" fill-opacity=".235294"/><path d="m8.929688 7.179688c-.898438 0-1.628907.730468-1.628907 1.628906 0 .851562.65625 1.550781 1.488281 1.621094v24.558593-.003906c-.035156.839844.269532 1.691406.914063 2.332031 1.21875 1.21875 3.1875 1.21875 4.410156 0l26.875-26.878906h.6875c.898438 0 1.628907-.726562 1.628907-1.628906 0-.898438-.730469-1.628906-1.628907-1.628906h-8.929687c-.902344 0-1.628906.730468-1.628906 1.628906 0 .726562.472656 1.34375 1.132812 1.550781l-17.226562 17.226563v-17.15625c.835937-.070313 1.488281-.769532 1.488281-1.621094 0-.898438-.726563-1.628906-1.628907-1.628906zm0 .28125h5.953124c.75 0 1.347657.597656 1.347657 1.347656s-.597657 1.347656-1.347657 1.347656c-.078124 0-.140624.0625-.140624.140625v17.628906c0 .054688.035156.109375.089843.128907.050781.023437.113281.011718.152344-.03125l17.644531-17.640626c.035156-.039062.050782-.09375.03125-.144531-.015625-.050781-.058594-.085937-.113281-.09375-.652344-.097656-1.148437-.652343-1.148437-1.335937 0-.75.597656-1.347656 1.347656-1.347656h8.929687c.75 0 1.347657.597656 1.347657 1.347656s-.597657 1.347656-1.347657 1.347656h-.742187c-.039063 0-.074219.015625-.101563.042969l-26.917969 26.917969c-1.113281 1.113281-2.898437 1.113281-4.011718 0-.585938-.585938-.863282-1.359376-.832032-2.121094v-24.699219c0-.078125-.0625-.140625-.140624-.140625-.75 0-1.347657-.597656-1.347657-1.347656s.597657-1.347656 1.347657-1.347656zm0 0" fill="#212121"/></svg>

<?xml version="1.0" encoding="UTF-8"?>
<svg xmlns="http://www.w3.org/2000/svg" xmlns:xlink="http://www.w3.org/1999/xlink" width="48pt" height="48pt" viewBox="0 0 48 48" version="1.1">
<defs>
<radialGradient id="radial0" gradientUnits="userSpaceOnUse" cx="450.908936" cy="189.579361" fx="450.908936" fy="189.579361" r="21.166656" gradientTransform="matrix(0.000000261256,-0.117199,-0.210958,-0.000000152308,63.311737,95.392999)">
<stop offset="0" style="stop-color:rgb(0%,0%,0%);stop-opacity:0.313725;"/>
<stop offset="0.222222" style="stop-color:rgb(0%,0%,0%);stop-opacity:0.27451;"/>
<stop offset="1" style="stop-color:rgb(0%,0%,0%);stop-opacity:0;"/>
</radialGradient>
<radialGradient id="radial1" gradientUnits="userSpaceOnUse" cx="450.908936" cy="189.579361" fx="450.908936" fy="189.579361" r="21.166656" gradientTransform="matrix(-0.000000261256,0.117199,0.210958,0.000000152308,-15.682186,-11.291218)">
<stop offset="0" style="stop-color:rgb(0%,0%,0%);stop-opacity:0.313725;"/>
<stop offset="0.222222" style="stop-color:rgb(0%,0%,0%);stop-opacity:0.27451;"/>
<stop offset="1" style="stop-color:rgb(0%,0%,0%);stop-opacity:0;"/>
</radialGradient>
<radialGradient id="radial2" gradientUnits="userSpaceOnUse" cx="450.908936" cy="189.579361" fx="450.908936" fy="189.579361" r="21.166656" gradientTransform="matrix(-0.000000261256,-0.117199,0.210958,-0.000000152308,-15.682186,95.392999)">
<stop offset="0" style="stop-color:rgb(0%,0%,0%);stop-opacity:0.313725;"/>
<stop offset="0.222222" style="stop-color:rgb(0%,0%,0%);stop-opacity:0.27451;"/>
<stop offset="1" style="stop-color:rgb(0%,0%,0%);stop-opacity:0;"/>
</radialGradient>
<radialGradient id="radial3" gradientUnits="userSpaceOnUse" cx="450.908936" cy="189.579361" fx="450.908936" fy="189.579361" r="21.166656" gradientTransform="matrix(0.000000261256,0.117199,-0.210958,0.000000152308,63.311734,-11.291219)">
<stop offset="0" style="stop-color:rgb(0%,0%,0%);stop-opacity:0.313725;"/>
<stop offset="0.222222" style="stop-color:rgb(0%,0%,0%);stop-opacity:0.27451;"/>
<stop offset="1" style="stop-color:rgb(0%,0%,0%);stop-opacity:0;"/>
</radialGradient>
<linearGradient id="linear0" gradientUnits="userSpaceOnUse" x1="111.280739" y1="164.552521" x2="395.655518" y2="-119.822243" gradientTransform="matrix(0.0662976,-0.0662976,0.0662976,0.0662976,5.52769,38.519098)">
<stop offset="0" style="stop-color:rgb(40%,73.333333%,41.568627%);stop-opacity:1;"/>
<stop offset="1" style="stop-color:rgb(50.588235%,78.039216%,51.764706%);stop-opacity:1;"/>
</linearGradient>
<linearGradient id="linear1" gradientUnits="userSpaceOnUse" x1="800" y1="1535.118164" x2="800" y2="255.118118" gradientTransform="matrix(0.0248071,0,0,0.0248071,0,0)">
<stop offset="0" style="stop-color:rgb(87.843137%,87.843137%,87.843137%);stop-opacity:1;"/>
<stop offset="1" style="stop-color:rgb(93.333333%,93.333333%,93.333333%);stop-opacity:1;"/>
</linearGradient>
</defs>
<g id="surface1">
<path style=" stroke:none;fill-rule:nonzero;fill:url(#radial0);" d="M 23.816406 42.050781 L 27.785156 42.050781 L 27.785156 40.066406 L 23.816406 40.066406 Z M 23.816406 42.050781 "/>
<path style=" stroke:none;fill-rule:nonzero;fill:url(#radial1);" d="M 23.816406 42.050781 L 19.84375 42.050781 L 19.84375 44.035156 L 23.816406 44.035156 Z M 23.816406 42.050781 "/>
<path style=" stroke:none;fill-rule:nonzero;fill:url(#radial2);" d="M 23.816406 42.050781 L 19.84375 42.050781 L 19.84375 40.066406 L 23.816406 40.066406 Z M 23.816406 42.050781 "/>
<path style=" stroke:none;fill-rule:nonzero;fill:url(#radial3);" d="M 23.816406 42.050781 L 27.785156 42.050781 L 27.785156 44.035156 L 23.816406 44.035156 Z M 23.816406 42.050781 "/>
<path style=" stroke:none;fill-rule:nonzero;fill:url(#linear0);" d="M 5.570312 21.722656 L 22.410156 4.882812 C 23.1875 4.109375 24.441406 4.109375 25.21875 4.882812 L 42.058594 21.722656 C 42.832031 22.5 42.832031 23.753906 42.058594 24.53125 L 25.21875 41.371094 C 24.441406 42.144531 23.1875 42.144531 22.410156 41.371094 L 5.570312 24.53125 C 4.796875 23.753906 4.796875 22.5 5.570312 21.722656 Z M 5.570312 21.722656 "/>
<path style=" stroke:none;fill-rule:nonzero;fill:rgb(100%,100%,100%);fill-opacity:0.392157;" d="M 23.816406 4.300781 C 23.308594 4.300781 22.800781 4.496094 22.410156 4.882812 L 5.570312 21.722656 C 5.105469 22.191406 4.917969 22.832031 5.011719 23.433594 C 5.074219 23.035156 5.261719 22.648438 5.570312 22.339844 L 22.410156 5.5 C 23.1875 4.722656 24.441406 4.722656 25.21875 5.5 L 42.058594 22.339844 C 42.367188 22.648438 42.554688 23.035156 42.617188 23.433594 C 42.710938 22.832031 42.523438 22.191406 42.058594 21.722656 L 25.21875 4.882812 C 24.828125 4.496094 24.320312 4.300781 23.816406 4.300781 Z M 23.816406 4.300781 "/>
<path style=" stroke:none;fill-rule:nonzero;fill:rgb(0%,0%,0%);fill-opacity:0.235294;" d="M 23.816406 41.953125 C 23.308594 41.953125 22.800781 41.757812 22.410156 41.367188 L 5.570312 24.527344 C 5.105469 24.0625 4.917969 23.421875 5.011719 22.816406 C 5.074219 23.21875 5.261719 23.605469 5.570312 23.914062 L 22.410156 40.753906 C 23.1875 41.53125 24.441406 41.53125 25.21875 40.753906 L 42.058594 23.914062 C 42.367188 23.605469 42.554688 23.21875 42.617188 22.816406 C 42.710938 23.421875 42.523438 24.0625 42.058594 24.527344 L 25.21875 41.367188 C 24.828125 41.757812 24.320312 41.953125 23.816406 41.953125 Z M 23.816406 41.953125 "/>
<path style=" stroke:none;fill-rule:nonzero;fill:rgb(12.941177%,12.941177%,12.941177%);fill-opacity:1;" d="M 5.472656 21.625 C 4.640625 22.453125 4.640625 23.800781 5.472656 24.628906 L 22.3125 41.46875 C 23.144531 42.300781 24.488281 42.300781 25.316406 41.46875 L 42.15625 24.628906 C 42.988281 23.800781 42.988281 22.457031 42.15625 21.625 L 25.316406 4.785156 C 24.488281 3.953125 23.144531 3.953125 22.3125 4.785156 Z M 5.671875 21.824219 L 22.511719 4.984375 C 23.234375 4.257812 24.394531 4.257812 25.117188 4.984375 L 41.957031 21.824219 C 42.683594 22.546875 42.683594 23.707031 41.957031 24.429688 L 25.117188 41.269531 C 24.394531 41.996094 23.234375 41.996094 22.511719 41.269531 L 5.671875 24.429688 C 4.949219 23.707031 4.945312 22.546875 5.671875 21.824219 Z M 5.671875 21.824219 "/>
<path style=" stroke:none;fill-rule:nonzero;fill:url(#linear1);" d="M 8.929688 7.320312 C 8.105469 7.320312 7.441406 7.984375 7.441406 8.808594 C 7.441406 9.632812 8.105469 10.296875 8.929688 10.296875 L 8.929688 34.988281 C 8.898438 35.789062 9.1875 36.601562 9.800781 37.21875 C 10.96875 38.382812 12.847656 38.382812 14.011719 37.21875 L 40.933594 10.296875 L 41.675781 10.296875 C 42.5 10.296875 43.164062 9.632812 43.164062 8.808594 C 43.164062 7.984375 42.5 7.320312 41.675781 7.320312 L 32.746094 7.320312 C 31.921875 7.320312 31.257812 7.984375 31.257812 8.808594 C 31.257812 9.558594 31.808594 10.175781 32.527344 10.28125 L 14.882812 27.925781 L 14.882812 10.296875 C 15.707031 10.296875 16.371094 9.632812 16.371094 8.808594 C 16.371094 7.984375 15.707031 7.320312 14.882812 7.320312 Z M 8.929688 7.320312 "/>
<path style=" stroke:none;fill-rule:nonzero;fill:rgb(100%,100%,100%);fill-opacity:0.784314;" d="M 8.929688 7.320312 C 8.105469 7.320312 7.441406 7.984375 7.441406 8.808594 C 7.441406 8.894531 7.449219 8.976562 7.464844 9.058594 C 7.582031 8.351562 8.191406 7.816406 8.929688 7.816406 L 14.882812 7.816406 C 15.625 7.816406 16.234375 8.351562 16.351562 9.058594 C 16.367188 8.976562 16.371094 8.894531 16.371094 8.808594 C 16.371094 7.984375 15.707031 7.320312 14.882812 7.320312 Z M 32.746094 7.320312 C 31.921875 7.320312 31.257812 7.984375 31.257812 8.808594 C 31.257812 8.894531 31.265625 8.976562 31.277344 9.058594 C 31.394531 8.351562 32.003906 7.816406 32.746094 7.816406 L 41.675781 7.816406 C 42.414062 7.816406 43.027344 8.351562 43.144531 9.058594 C 43.15625 8.976562 43.164062 8.894531 43.164062 8.808594 C 43.164062 7.984375 42.5 7.320312 41.675781 7.320312 Z M 32.140625 10.667969 L 14.882812 27.925781 L 14.882812 28.421875 L 32.527344 10.777344 C 32.390625 10.757812 32.261719 10.71875 32.140625 10.667969 Z M 8.929688 34.988281 C 8.925781 35.070312 8.925781 35.148438 8.929688 35.230469 Z M 8.929688 34.988281 "/>
<path style=" stroke:none;fill-rule:nonzero;fill:rgb(0%,0%,0%);fill-opacity:0.235294;" d="M 7.453125 8.621094 C 7.445312 8.683594 7.441406 8.746094 7.441406 8.808594 C 7.441406 9.632812 8.105469 10.296875 8.929688 10.296875 L 8.929688 9.925781 C 8.167969 9.925781 7.546875 9.359375 7.453125 8.621094 Z M 16.359375 8.621094 C 16.269531 9.359375 15.644531 9.925781 14.882812 9.925781 L 14.882812 10.296875 C 15.707031 10.296875 16.371094 9.632812 16.371094 8.808594 C 16.371094 8.746094 16.367188 8.683594 16.359375 8.621094 Z M 43.152344 8.621094 C 43.0625 9.359375 42.4375 9.925781 41.675781 9.925781 L 40.933594 9.925781 L 14.011719 36.84375 C 12.847656 38.011719 10.96875 38.011719 9.800781 36.84375 C 9.25 36.292969 8.960938 35.578125 8.929688 34.855469 L 8.929688 34.988281 C 8.898438 35.789062 9.1875 36.601562 9.800781 37.21875 C 10.96875 38.382812 12.847656 38.382812 14.011719 37.21875 L 40.933594 10.296875 L 41.675781 10.296875 C 42.5 10.296875 43.164062 9.632812 43.164062 8.808594 C 43.164062 8.746094 43.160156 8.683594 43.152344 8.621094 Z M 31.269531 8.625 C 31.261719 8.683594 31.257812 8.746094 31.257812 8.808594 C 31.257812 9.453125 31.660156 9.996094 32.230469 10.207031 L 32.527344 9.910156 C 31.867188 9.8125 31.351562 9.289062 31.269531 8.625 Z M 31.269531 8.625 "/>
<path style=" stroke:none;fill-rule:nonzero;fill:rgb(12.941177%,12.941177%,12.941177%);fill-opacity:1;" d="M 8.929688 7.179688 C 8.03125 7.179688 7.300781 7.910156 7.300781 8.808594 C 7.300781 9.660156 7.957031 10.359375 8.789062 10.429688 L 8.789062 34.988281 L 8.789062 34.984375 C 8.753906 35.824219 9.058594 36.675781 9.703125 37.316406 C 10.921875 38.535156 12.890625 38.535156 14.113281 37.316406 L 40.988281 10.4375 L 41.675781 10.4375 C 42.574219 10.4375 43.304688 9.710938 43.304688 8.808594 C 43.304688 7.910156 42.574219 7.179688 41.675781 7.179688 L 32.746094 7.179688 C 31.84375 7.179688 31.117188 7.910156 31.117188 8.808594 C 31.117188 9.535156 31.589844 10.152344 32.25 10.359375 L 15.023438 27.585938 L 15.023438 10.429688 C 15.859375 10.359375 16.511719 9.660156 16.511719 8.808594 C 16.511719 7.910156 15.785156 7.179688 14.882812 7.179688 Z M 8.929688 7.460938 L 14.882812 7.460938 C 15.632812 7.460938 16.230469 8.058594 16.230469 8.808594 C 16.230469 9.558594 15.632812 10.15625 14.882812 10.15625 C 14.804688 10.15625 14.742188 10.21875 14.742188 10.296875 L 14.742188 27.925781 C 14.742188 27.980469 14.777344 28.035156 14.832031 28.054688 C 14.882812 28.078125 14.945312 28.066406 14.984375 28.023438 L 32.628906 10.382812 C 32.664062 10.34375 32.679688 10.289062 32.660156 10.238281 C 32.644531 10.1875 32.601562 10.152344 32.546875 10.144531 C 31.894531 10.046875 31.398438 9.492188 31.398438 8.808594 C 31.398438 8.058594 31.996094 7.460938 32.746094 7.460938 L 41.675781 7.460938 C 42.425781 7.460938 43.023438 8.058594 43.023438 8.808594 C 43.023438 9.558594 42.425781 10.15625 41.675781 10.15625 L 40.933594 10.15625 C 40.894531 10.15625 40.859375 10.171875 40.832031 10.199219 L 13.914062 37.117188 C 12.800781 38.230469 11.015625 38.230469 9.902344 37.117188 C 9.316406 36.53125 9.039062 35.757812 9.070312 34.996094 L 9.070312 10.296875 C 9.070312 10.21875 9.007812 10.15625 8.929688 10.15625 C 8.179688 10.15625 7.582031 9.558594 7.582031 8.808594 C 7.582031 8.058594 8.179688 7.460938 8.929688 7.460938 Z M 8.929688 7.460938 "/>
</g>
</svg>
